svg/ionicons/newspaper-outline.svg

<svg xmlns="http://www.w3.org/2000/svg" width="512" height="512" viewBox="0 0 512 512"><path fill="currentColor" stroke="#000" stroke-linejoin="round" stroke-width="32" d="M368 415.86V72a24.07 24.07 0 00-24-24H72a24.07 24.07 0 00-24 24v352a40.12 40.12 0 0040 40h328"/><path fill="currentColor" stroke="#000" stroke-linejoin="round" stroke-width="32" d="M416 464a48 48 0 01-48-48V128h72a24 24 0 0124 24v264a48 48 0 01-48 48Z"/><path fill="currentColor" stroke="#000" stroke-linecap="round" stroke-linejoin="round" stroke-width="32" d="M240 128h64m-64 64h64m-192 64h192m-192 64h192m-192 64h192"/><path d="M176 208h-64a16 16 0 01-16-16v-64a16 16 0 0116-16h64a16 16 0 0116 16v64a16 16 0 01-16 16"/></svg>

<svg xmlns="http://www.w3.org/2000/svg" width="512" height="512" viewBox="0 0 512 512"><path d="M368,415.86V72a24.07,24.07,0,0,0-24-24H72A24.07,24.07,0,0,0,48,72V424a40.12,40.12,0,0,0,40,40H416" style="fill:none;stroke:#000;stroke-linejoin:round;stroke-width:32px"/><path d="M416,464h0a48,48,0,0,1-48-48V128h72a24,24,0,0,1,24,24V416A48,48,0,0,1,416,464Z" style="fill:none;stroke:#000;stroke-linejoin:round;stroke-width:32px"/><line x1="240" y1="128" x2="304" y2="128" style="fill:none;stroke:#000;stroke-linecap:round;stroke-linejoin:round;stroke-width:32px"/><line x1="240" y1="192" x2="304" y2="192" style="fill:none;stroke:#000;stroke-linecap:round;stroke-linejoin:round;stroke-width:32px"/><line x1="112" y1="256" x2="304" y2="256" style="fill:none;stroke:#000;stroke-linecap:round;stroke-linejoin:round;stroke-width:32px"/><line x1="112" y1="320" x2="304" y2="320" style="fill:none;stroke:#000;stroke-linecap:round;stroke-linejoin:round;stroke-width:32px"/><line x1="112" y1="384" x2="304" y2="384" style="fill:none;stroke:#000;stroke-linecap:round;stroke-linejoin:round;stroke-width:32px"/><path d="M176,208H112a16,16,0,0,1-16-16V128a16,16,0,0,1,16-16h64a16,16,0,0,1,16,16v64A16,16,0,0,1,176,208Z"/></svg>
